X:141
T:Italian Passport
R:reel
C: 2009, 2010 L.E. McCullough 
M:4/4
L:1/8
K:G
GA|: B~G3 A~D3 | EGGF GABG | ABcd (3Bcd GB | cdeg fdcA |
B~G3 A~D3 | EGGF GABG | c~e3 dBgB | edBA ~G3A:|
|: B~d3 ~g3d | eceg ~a3g | (3fga df adfa | ~b3a  gfed |
BGBd ~g3d | eceg agfe | ~f3g adfa |1 c'baf ~g3A:|2 c'baf gfed ||

